src/components/Camino/assets/company.svg

<svg fill="none" height="137" viewBox="0 0 136 137" width="136" xmlns="http://www.w3.org/2000/svg" xmlns:xlink="http://www.w3.org/1999/xlink"><linearGradient id="a"><stop offset="0" stop-color="#82f0c5"/><stop offset="1" stop-color="#46c996"/></linearGradient><linearGradient id="b" gradientUnits="userSpaceOnUse" x1="-45.9784" x2="-75.1996" xlink:href="#a" y1="-147.526" y2="9.52102"/><linearGradient id="c" gradientUnits="userSpaceOnUse" x1="-152.683" x2="-144.374" xlink:href="#a" y1="17.1202" y2="154.451"/><path d="m132.055 98.5372c.005-21.1211-17.114-38.2472-38.23-38.2472-21.1361 0-38.2497 17.1298-38.2497 38.2522 0 21.1158 17.1224 38.2408 38.2497 38.2358h38.247z" fill="#fff"/><path d="m.0099628 42.9602c-.00124534 21.1236 17.1148372 38.2409 38.2384372 38.2472 21.1348-.0063 38.2447-17.1211 38.2447-38.2472s-17.1186-38.24843-38.2447-38.24096l-38.2484.00249z" fill="#fff"/><path d="m135.172 21.7637c0 12.0189-9.745 21.7625-21.763 21.7625-12.021 0-21.7641-9.7436-21.7641-21.7625 0-12.02008 9.7431-21.7637 21.7641-21.7637 12.018 0 21.763 9.74362 21.763 21.7637z" fill="url(#b)"/><path d="m39.5738 116.189c0 10.516-8.5319 19.044-19.0489 19.044-10.5157 0-19.03766-8.528-19.03766-19.044 0-10.513 8.52196-19.0425 19.03886-19.0425 10.517 0 19.0477 8.5295 19.0477 19.0425z" fill="url(#c)"/></svg>

<svg width="136" height="137" viewBox="0 0 136 137" fill="none" xmlns="http://www.w3.org/2000/svg">
<path d="M132.055 98.5372C132.06 77.4161 114.941 60.29 93.825 60.29C72.6889 60.29 55.5753 77.4198 55.5753 98.5422C55.5753 119.658 72.6977 136.783 93.825 136.778H132.072L132.055 98.5372Z" fill="white"/>
<path d="M0.0099628 42.9602C0.00871746 64.0838 17.1248 81.2011 38.2484 81.2074C59.3832 81.2011 76.4931 64.0863 76.4931 42.9602C76.4931 21.8341 59.3745 4.71177 38.2484 4.71924L0 4.72173L0.0099628 42.9602Z" fill="white"/>
<path d="M135.172 21.7637C135.172 33.7826 125.427 43.5262 113.409 43.5262C101.388 43.5262 91.6449 33.7826 91.6449 21.7637C91.6449 9.74362 101.388 0 113.409 0C125.427 0 135.172 9.74362 135.172 21.7637Z" fill="url(#paint0_linear)"/>
<path d="M39.5738 116.189C39.5738 126.705 31.0419 135.233 20.5249 135.233C10.0092 135.233 1.48724 126.705 1.48724 116.189C1.48724 105.676 10.0092 97.1465 20.5261 97.1465C31.0431 97.1465 39.5738 105.676 39.5738 116.189Z" fill="url(#paint1_linear)"/>
<defs>
<linearGradient id="paint0_linear" x1="-45.9784" y1="-147.526" x2="-75.1996" y2="9.52102" gradientUnits="userSpaceOnUse">
<stop stop-color="#82F0C5"/>
<stop offset="1" stop-color="#46C996"/>
</linearGradient>
<linearGradient id="paint1_linear" x1="-152.683" y1="17.1202" x2="-144.374" y2="154.451" gradientUnits="userSpaceOnUse">
<stop stop-color="#82F0C5"/>
<stop offset="1" stop-color="#46C996"/>
</linearGradient>
</defs>
</svg>
